X:1
T:Silver Threads Among the Gold
T:Silver Threads Among the Gold
T:H. P. Danks
C:H. P. Danks
%%score [ 1 2 3 4 ]
L:1/8
Q:1/4=60
M:4/4
K:Bb
V:1 treble nm="Soprano"
V:2 treble nm="Alto"
V:3 treble-8 nm="Tenor"
V:4 bass nm="Bass"
V:1
 d3 e d F E c | (B4 D2) z2 | F3 G A e G3/2 e/ | d6 z2 | d3 e d F E3/2 c/ | (B4 D2) z2 | %6
w: 1.Dar- ling, I am grow- ing|old; _|Sil- ver threads a- mong the|gold|Shine up- on my brow to-|day; _|
 F3 G A e G3/2 A/ | B6 z2 | A3 B c F E A | B3 F d2 z2 | c3 c c c d3/2 c/ | c8 | d3 e d F E c | %13
w: Life is fad- ing fast a-|way;|But, my dar- ling, you will|be, will be,|Al- ways young and fair to|me,|Yes! my dar- ling, you will|
 (B4 D2) z2 | F3 G A e d c | B8 ||"^Refreng" A3 B c F E A | (B3 F d2) z2 | c3 c c c d3/2 c/ | c8 | %20
w: be _|Al- ways young and fair to|me.|Dar- ling, I am grow- ing|old, * *|Sil- ver threads a- mong the|gold|
 d3 e d F E c | (B4 D2) z2 | F3 G A e d c | B8 |] %24
w: Shine up- on my brow to-|day, _|Life is fad- ing fast a-|way.|
V:2
 F3 G F D C E | (D4 B,2) z2 | E3 E E E E3/2 E/ | F6 z2 | F3 G F D C3/2 E/ | (D4 B,2) z2 | %6
w: 1.Dar- ling, I am grow- ing|old; _|Sil- ver threads a- mong the|gold|Shine up- on my brow to-|day; _|
 E3 E E E E3/2 E/ | D6 z2 | E3 E E C C E | D3 D F2 z2 | F3 F =E E E3/2 E/ | (F2 G2 F2 _E2) | %12
w: Life is fad- ing fast a-|way;|But, my dar- ling, you will|be, will be,|Al- ways young and fair to|me, _ _ _|
 F3 G F D C E | (D4 B,2) z2 | E3 E E G F E | (D2 E2 D4) || E3 E E C C E | (D4 F2) z2 | %18
w: Yes! my dar- ling, you will|be _|Al- ways young and fair to|me. _ _|Dar- ling, I am grow- ing|old, _|
 F3 F =E E E3/2 E/ | (F2 G2 F2 _E2) | F3 G F D C E | (D4 B,2) z2 | E3 E E G F E | (D2 E2 D4) |] %24
w: Sil- ver threads a- mong the|gold _ _ _|Shine up- on my brow to-|day, _|Life is fad- ing fast a-|way. _ _|
V:3
 B3 B B B A A | (B4 F2) z2 | A3 B c A c3/2 A/ | B6 z2 | B3 B B B A3/2 A/ | (B4 F2) z2 | %6
w: 1.Dar- ling, I am grow- ing|old; _|Sil- ver threads a- mong the|gold|Shine up- on my brow to-|day; _|
 A3 B c A G3/2 F/ | F6 z2 | c3 B A A A c | B6 z2 | A3 A G G B3/2 B/ | (A2 B2 A4) | B3 B B B A A | %13
w: Life is fad- ing fast a-|way;|But, my dar- ling, you will|be|Al- ways young and fair to|me, _ _|Yes! my dar- ling, you will|
 (B4 F2) z2 | A3 B c A A F | (F2 G2 F4) || c3 B A A A c | B6 z2 | A3 A G G B3/2 B/ | (A2 B2 A4) | %20
w: be _|Al- ways young and fair to|me. _ _|Dar- ling, I am grow- ing|old,|Sil- ver threads a- mong the|gold _ _|
 B3 B B B A A | (B4 F2) z2 | A3 B c A A F | (F2 G2 F4) |] %24
w: Shine up- on my brow to-|day, _|Life is fad- ing fast a-|way. _ _|
V:4
 B,,3 B,, B,, B,, F, F, | B,,6 z2 | F,3 F, F, F, F,,3/2 F,,/ | B,,6 z2 | %4
w: 1.Dar- ling, I am grow- ing|old;|Sil- ver threads a- mong the|gold|
 B,,3 B,, B,, B,, F,3/2 F,/ | B,,6 z2 | F,3 F, F, F, F,,3/2 F,,/ | B,,6 z2 | F,3 F, F, F, F, F, | %9
w: Shine up- on my brow to-|day;|Life is fad- ing fast a-|way;|But, my dar- ling, you will|
 B,,6 z2 | C,3 C, C, C, C,3/2 C,/ | F,,8 | B,,3 B,, B,, B,, F, F, | B,,6 z2 | %14
w: be|Al- ways young and fair to|me,|Yes! my dar- ling, you will|be|
 F,3 F, F, F, F,, F,, | B,,8 || F,3 F, F, F, F, F, | B,,6 z2 | C,3 C, C, C, C, C, | F,,8 | %20
w: Al- ways young and fair to|me.|Dar- ling, I am grow- ing|old,|Sil- ver threads a- mong the|gold|
"_2. When your hair is silver white, And your cheeks no longer bright\nWith the roses of the May, I will kiss your lips and say\nOh! my darling, mine alone, You have never older grown\nYes! my darling, mine alone, You have never older grown\n\n3. Love is always young and fair. What to us is silver hair,\nFaded cheeks or steps grown slow, To the hearts that beat below?\nSince I kiss'd you, mine alone, You have never older grown\nSince I kiss'd you, mine alone, You have never older grown \n" B,,3 B,, B,, B,, F, F, | %21
w: Shine up- on my brow to-|
 B,,6 z2 | F,3 F, F, F, F,, F,, | B,,8 |] %24
w: day,|Life is fad- ing fast a-|way.|

